!!!SOCIAL_FUNCTION:	songs connected with legends
!!!PDT:	1929
!!!OTL: No_11_It_is_Raven_Mountain.krn
!!!REG: Southwest
!!!LANG: Non-Tone
!!!LING_GROUP: Uto-Aztecan
**kern
*staff1
*clefF4
*k[b-e-a-d-g-c-]
*M2/4
4E-\
=1
4B-\
4B-\
=2||
*M3/4
2B-\
4B-\
=3||
*M2/4
4B-\
8G-\L
[8F\J
=4
8F\]
8r
4B-\
=5
c-q/
4c-\
4B-\
=6||
*M3/4
8B-\L
[8G-\J
8G-\L]
8E-\J
4F\
=7
4E-\
8C-/L
8BB-/J
8BB-/
8r
=8
4.E-\
8C-/
8E-/L
8C-/J
=9||
*M2/4
4E-\
8C-/L
8BB-/J
=10
8BB-/
8r
4E-\
=11||
*M3/4
4G-\
4G-\
4F\
=12
4E-\
4E-\
4F\
=13||
*M2/4
16F\LK
8.E-\J
4F\
=14||
*M3/4
4.E-\
8C-/
12E-\L
12E-\
12E-\J
=15
2.E-\
==
*-
